X: 23211
T: League, The
R: reel
M: 4/4
K: Gmajor
|:G2 (3ABd gdBd|cBAG FA (3DEF|GE (3FED CEAG|FD (3EFA BdcA|
G2 (3ABd gdBd|cBAG FA (3DEF|GE (3FED CEAG|1 FDEF G2 z F:|2 FDEF G2 ga||
|:bg (3ggg bgd g|af (3fff afda|bgaf (3gfe fd|ecdB cB (3cBA|
G2 (3ABd gdBd|cBAG FA (3DEF|GE (3FED CEAG|1 FDEF Gg (3ggg:|2 FDEF G2 z F||

